symbols/web/screenshot/materialsymbolssharp/screenshot_wght700grad200fill1_48px.svg

<svg xmlns="http://www.w3.org/2000/svg" height="48" width="48"><path d="M15.05 19.6v-8.05h8v2.5h-5.5v5.55ZM25.1 36.45v-2.5h5.35V28.9h2.5v7.55ZM9 46.95V1.05h30v45.9ZM13.55 38h20.9V10h-20.9Z"/></svg>

<svg xmlns="http://www.w3.org/2000/svg" height="48" width="48"><path d="M15.05 19.6V11.55H23.05V14.05H17.55V19.6ZM25.1 36.45V33.95H30.45V28.9H32.95V36.45ZM9 46.95V1.05H39V46.95ZM13.55 38H34.45V10H13.55Z"/></svg>
